assets/images/content/favicon.svg

<svg width="32" height="32" viewBox="0 0 32 32" fill="none" xmlns="http://www.w3.org/2000/svg">
<rect width="32" height="32" fill="white"/>
<mask id="mask0" mask-type="alpha" maskUnits="userSpaceOnUse" x="0" y="0" width="32" height="32">
<rect width="32" height="32" fill="#C4C4C4"/>
</mask>
<g mask="url(#mask0)">
<path d="M24.0585 20.2751C23.2685 20.1742 22.5089 20.0713 21.7474 19.982C20.8729 19.8791 19.9978 19.784 19.1227 19.6953C18.9762 19.6805 18.8468 19.6458 18.7283 19.5558C17.9146 18.9401 17.0778 18.3616 16.2294 17.8018C16.0836 17.706 15.9924 17.5871 15.925 17.4232C15.3416 16.0091 14.7521 14.5983 14.1626 13.1868C14.1353 13.1219 14.1286 13.0364 14.0289 12.9991C13.688 13.8341 13.344 14.6696 13.0043 15.5071C11.6752 18.7833 10.3474 22.0594 9.01896 25.3355C8.30976 27.0844 7.5951 28.8307 6.89259 30.5822C6.80265 30.8066 6.70299 30.9055 6.45383 30.9036C4.40828 30.8908 2.36274 30.8914 0.317802 30.903C0.0698569 30.9043 0.0491946 30.8143 0.0194169 30.5822C-0.0942244 29.694 0.371887 29.0036 0.690326 28.2696C2.80758 23.3937 4.93881 18.5242 7.06396 13.6515C8.85609 9.54242 10.6482 5.43331 12.4318 1.32034C12.5333 1.08703 12.6439 0.994469 12.8961 1.00025C13.7159 1.02018 14.5363 1.01697 15.3567 1.00154C15.5834 0.99704 15.6904 1.07738 15.784 1.29206C17.3136 4.80213 18.8523 8.30834 20.3873 11.8158C21.6009 14.588 22.8115 17.3621 24.0233 20.135C24.0342 20.1645 24.0385 20.1967 24.0585 20.2751Z" fill="#E32429"/>
<path d="M-3.61049 29.6579C-3.1304 28.5807 -2.67584 27.4899 -2.16111 26.4313C-1.50086 25.0742 -0.734024 23.1865 -0.42489 22.4405C0.441715 20.3623 1.5575 17.9207 1.66866 17.6494C2.2662 16.1941 2.62965 15.4616 3.25964 14.0089C5.101 9.78344 6.94903 5.56185 8.78917 1.33576C8.89613 1.08958 9.02557 0.987387 9.28993 1.00153C9.77488 1.02659 10.2617 1.01695 10.7472 1.00538C10.98 0.999599 11.0723 1.00731 10.9417 1.30233C9.80769 3.86691 8.69012 6.43984 7.56586 9.00892C5.41457 13.9266 3.26268 18.8437 1.11139 23.7613C0.261819 25.7031 -0.581679 27.6474 -1.43976 29.5847C-1.5929 29.9298 -1.52484 30.2782 -1.52788 30.624C-1.53031 30.8541 -1.59533 30.91 -1.80317 30.9042C-2.32945 30.8895 -2.85633 30.8882 -3.382 30.9042C-3.60138 30.9107 -3.66579 30.8303 -3.64878 30.6111C-3.62386 30.2923 -3.68099 29.9697 -3.60624 29.6528L-3.61049 29.6579Z" fill="#E3242A"/>
<path d="M8.2431 29.4778C9.30902 26.8503 10.3731 24.2285 11.4372 21.6061C11.4561 21.6093 11.4749 21.6131 11.4937 21.6163C11.4937 22.1608 11.4937 22.7045 11.4937 23.3055C12.3749 22.7682 13.2099 22.2597 14.0832 21.7275C13.4202 21.3226 12.7954 20.9299 12.1592 20.5597C11.9696 20.4491 11.9361 20.3591 12.0267 20.1457C12.3767 19.3204 12.7098 18.4868 13.0397 17.6519C13.1054 17.4854 13.1625 17.4404 13.3454 17.4912C14.446 17.799 15.49 18.2278 16.4344 18.9174C17.1898 19.4689 17.9859 19.9581 18.7078 20.5622C18.785 20.6265 18.8695 20.6413 18.9619 20.6471C20.6786 20.7518 22.393 20.8881 24.1 21.1092C26.436 21.412 28.7611 21.7796 30.9695 22.7013C31.6386 22.9803 32.2627 23.346 32.848 23.7921C33.6076 24.3712 33.9072 25.1039 33.6179 26.077C33.4229 26.7326 33.4593 27.3773 33.7279 28.0137C33.8422 28.2843 33.9078 28.5799 33.9734 28.8692C34.0658 29.2792 33.9108 29.4978 33.5171 29.5003C32.3223 29.5074 31.1275 29.4984 29.9328 29.5074C29.6958 29.5093 29.7511 29.4059 29.8106 29.2599C30.2196 28.256 30.267 27.2314 29.931 26.1972C29.333 24.3558 27.6114 23.1789 25.8022 23.364C23.9852 23.5497 22.4969 25.0159 22.2283 26.9068C22.1152 27.7038 22.1979 28.4841 22.5133 29.2272C22.585 29.3969 22.726 30 22.461 30C17.7829 29.9929 12.9333 30.0013 8.25512 30C8.25512 30 8.09371 29.8462 8.2431 29.4778ZM15.0355 25.5545C15.9099 25.0204 16.7431 24.5113 17.6042 23.9849C16.7334 23.454 15.9002 22.9462 15.0355 22.4191C15.0355 23.4842 15.0355 24.4965 15.0355 25.5545ZM13.4457 27.0405C13.4457 26.1452 13.4457 25.2916 13.4457 24.4001C12.7195 24.8442 12.0218 25.2704 11.2853 25.7203C12.0243 26.1715 12.7237 26.599 13.4457 27.0405ZM10.1027 26.6889C10.1027 27.4615 10.1027 28.1866 10.1027 28.9399C10.728 28.5581 11.3248 28.1936 11.9459 27.8144C11.3242 27.4352 10.7262 27.0701 10.1027 26.6889ZM15.0348 28.9424C15.4858 28.6648 15.8996 28.4102 16.3311 28.1441C15.8911 27.8774 15.4779 27.6267 15.0348 27.358C15.0348 27.9025 15.0348 28.3987 15.0348 28.9424Z" fill="#3E3E3E"/>
<path d="M29.4013 27.5511C29.4098 29.4433 27.9707 30.9866 26.1859 31.0001C24.4023 31.0136 22.9425 29.4877 22.9298 27.5967C22.917 25.6852 24.3536 24.1419 26.1579 24.1278C27.93 24.1143 29.3934 25.6588 29.4013 27.5511ZM27.2603 27.5703C27.2621 26.9231 26.7802 26.407 26.1695 26.4025C25.5654 26.398 25.0677 26.9199 25.0659 27.5601C25.064 28.2009 25.5557 28.7273 26.1597 28.7312C26.7632 28.7357 27.2585 28.2131 27.2603 27.5703Z" fill="#3E3E3E"/>
</g>
</svg>

<svg width="32" height="32" fill="none" xmlns="http://www.w3.org/2000/svg"><path fill="#fff" d="M0 0h32v32H0z"/><mask id="mask0" maskUnits="userSpaceOnUse" x="0" y="0" width="32" height="32"><path fill="#C4C4C4" d="M0 0h32v32H0z"/></mask><g mask="url(#mask0)"><path d="M24.058 20.275c-.79-.1-1.55-.204-2.31-.293-.875-.103-1.75-.198-2.625-.287a.742.742 0 01-.395-.14 47.31 47.31 0 00-2.499-1.753.777.777 0 01-.304-.379c-.583-1.414-1.173-2.825-1.762-4.236-.028-.065-.034-.15-.134-.188-.341.835-.685 1.67-1.025 2.508L9.02 25.336c-.71 1.748-1.424 3.495-2.126 5.246-.09.225-.19.323-.44.322a514.362 514.362 0 00-6.135-.001c-.248.001-.269-.089-.299-.32-.113-.889.353-1.58.671-2.313 2.118-4.876 4.249-9.746 6.374-14.618 1.792-4.11 3.584-8.219 5.368-12.332.101-.233.212-.326.464-.32.82.02 1.64.017 2.46.002.227-.005.334.075.428.29 1.53 3.51 3.068 7.016 4.603 10.524 1.214 2.772 2.424 5.546 3.636 8.319.011.03.015.062.035.14z" fill="#E32429"/><path d="M-3.61 29.658c.48-1.077.934-2.168 1.449-3.227.66-1.357 1.427-3.245 1.736-3.99.867-2.079 1.983-4.52 2.094-4.792.597-1.455.96-2.187 1.59-3.64C5.102 9.783 6.95 5.562 8.79 1.336c.107-.246.237-.349.5-.334.486.025.973.015 1.458.003.233-.005.325.002.195.297C9.808 3.867 8.69 6.44 7.566 9.01L1.11 23.76c-.85 1.942-1.693 3.886-2.55 5.824-.154.345-.086.693-.089 1.039-.002.23-.067.286-.275.28a27.07 27.07 0 00-1.579 0c-.22.007-.284-.074-.267-.293.025-.319-.032-.641.043-.958l-.004.005z" fill="#E3242A"/><path d="M8.243 29.478l3.194-7.872.057.01v1.69c.88-.538 1.716-1.046 2.59-1.579-.664-.404-1.289-.797-1.925-1.167-.19-.11-.223-.2-.132-.414.35-.826.683-1.66 1.013-2.494.065-.167.123-.212.305-.16 1.101.307 2.145.736 3.09 1.425.755.552 1.55 1.041 2.273 1.645.077.064.162.08.254.085 1.717.105 3.431.241 5.138.462 2.336.303 4.661.67 6.87 1.592a8.5 8.5 0 011.878 1.091c.76.58 1.06 1.312.77 2.285a2.79 2.79 0 00.11 1.937c.114.27.18.566.245.855.093.41-.062.629-.456.631-1.195.007-2.39-.002-3.584.007-.237.002-.182-.101-.122-.247a4.34 4.34 0 00.12-3.063c-.598-1.841-2.32-3.018-4.129-2.833-1.817.186-3.305 1.652-3.574 3.543a4.3 4.3 0 00.285 2.32c.072.17.213.773-.052.773-4.678-.007-9.528.001-14.206 0 0 0-.161-.154-.012-.522zm6.793-3.924l2.568-1.57-2.568-1.565v3.136zm-1.59 1.487V24.4l-2.16 1.32 2.16 1.32zm-3.343-.352v2.25c.625-.38 1.222-.745 1.843-1.125l-1.843-1.125zm4.932 2.253l1.296-.798-1.296-.786v1.584z" fill="#3E3E3E"/><path d="M29.401 27.551c.009 1.892-1.43 3.436-3.215 3.45-1.784.013-3.244-1.513-3.256-3.404-.013-1.912 1.424-3.455 3.228-3.47 1.772-.013 3.235 1.532 3.243 3.424zm-2.14.02c.001-.648-.48-1.164-1.091-1.169-.605-.004-1.102.518-1.104 1.158-.002.64.49 1.167 1.094 1.171.603.005 1.099-.518 1.1-1.16z" fill="#3E3E3E"/></g></svg>
